flaticon/stationery/paint-palette-1.svg

<svg xmlns="http://www.w3.org/2000/svg" width="32" height="32" viewBox="0 0 24 24">
    <path d="M5.625 15.800781C5.433594 15.609375 5.089844 15.609375 4.898438 15.800781L.128906 21.007812C-.0507812 21.207031-.0429688 21.515625.148438 21.703125L2.28125 23.851562C2.488281 24.046875 2.800781 24.046875 2.984375 23.871094L8.160156 19.074219C8.359375 18.875 8.359375 18.554688 8.160156 18.355469zM2.667969 22.789062L1.210938 21.324219 3.679688 18.523438 5.453125 20.304688zM6.195312 19.605469L4.375 17.777344 5.261719 16.886719 7.078125 18.714844zM17.214844 14.925781C15.792969 14.925781 14.640625 16.078125 14.640625 17.496094 14.640625 18.917969 15.792969 20.070312 17.214844 20.070312 18.636719 20.070312 19.789062 18.917969 19.789062 17.496094 19.789062 16.078125 18.636719 14.925781 17.214844 14.925781zM17.214844 19.054688C16.355469 19.054688 15.660156 18.355469 15.660156 17.496094 15.660156 16.636719 16.355469 15.941406 17.214844 15.941406 18.074219 15.941406 18.769531 16.636719 18.769531 17.496094 18.769531 18.355469 18.074219 19.054688 17.214844 19.054688zM18.550781 7.691406C17.128906 7.691406 15.980469 8.84375 15.980469 10.265625 15.980469 11.6875 17.132812 12.839844 18.550781 12.839844 19.972656 12.839844 21.125 11.6875 21.125 10.265625 21.125 8.84375 19.972656 7.691406 18.550781 7.691406zM18.550781 11.820312C17.691406 11.820312 16.996094 11.125 16.996094 10.265625 16.996094 9.40625 17.691406 8.710938 18.550781 8.710938 19.410156 8.710938 20.109375 9.40625 20.109375 10.265625 20.109375 11.125 19.410156 11.820312 18.550781 11.820312zM6.589844 4.246094C5.167969 4.246094 4.019531 5.398438 4.019531 6.816406 4.019531 8.238281 5.171875 9.390625 6.589844 9.390625 8.011719 9.390625 9.164062 8.238281 9.164062 6.816406 9.164062 5.398438 8.011719 4.246094 6.589844 4.246094zM6.589844 8.375C5.730469 8.375 5.035156 7.675781 5.035156 6.816406 5.035156 5.957031 5.730469 5.261719 6.589844 5.261719 7.449219 5.261719 8.148438 5.957031 8.148438 6.816406 8.148438 7.675781 7.449219 8.375 6.589844 8.375zM16.359375 5.472656C16.359375 4.050781 15.207031 2.902344 13.785156 2.902344 12.363281 2.902344 11.210938 4.050781 11.210938 5.472656 11.210938 6.894531 12.363281 8.046875 13.785156 8.046875 15.207031 8.046875 16.359375 6.894531 16.359375 5.472656zM13.785156 7.03125C12.925781 7.03125 12.230469 6.332031 12.230469 5.472656 12.230469 4.613281 12.925781 3.917969 13.785156 3.917969 14.644531 3.917969 15.339844 4.613281 15.339844 5.472656 15.339844 6.332031 14.644531 7.03125 13.785156 7.03125zM13.785156 7.03125"/>
    <path d="M 20.417969 3.601562 C 18.105469 1.28125 15.03125 0 11.765625 0 C 8.496094 0 5.421875 1.28125 3.109375 3.601562 C 2.160156 4.558594 1.375 5.660156 0.78125 6.871094 C 0.15625 8.144531 0.222656 9.640625 0.957031 10.875 C 1.710938 12.140625 3.03125 12.933594 4.492188 12.996094 L 6.6875 13.089844 C 6.339844 13.726562 6.117188 14.441406 6.035156 15.199219 C 6.019531 15.351562 6.070312 15.503906 6.179688 15.613281 L 8.351562 17.796875 C 8.449219 17.894531 8.578125 17.945312 8.710938 17.945312 C 8.78125 17.945312 8.851562 17.929688 8.917969 17.902344 C 9.734375 17.546875 10.441406 16.902344 10.917969 16.148438 C 10.921875 16.195312 10.925781 16.238281 10.929688 16.285156 L 11.066406 19.605469 C 11.160156 21.898438 13.078125 23.765625 15.34375 23.765625 C 15.972656 23.765625 16.585938 23.621094 17.164062 23.335938 C 18.371094 22.738281 19.464844 21.949219 20.417969 20.992188 C 22.726562 18.667969 24 15.582031 24 12.296875 C 24 9.011719 22.726562 5.925781 20.417969 3.601562 Z M 10.535156 14.140625 C 10.53125 15.113281 9.78125 16.246094 8.8125 16.8125 L 7.082031 15.070312 C 7.234375 14.109375 7.660156 13.253906 8.328125 12.582031 C 9.054688 11.851562 10.703125 11.617188 11.839844 11.542969 C 11.210938 12.199219 10.542969 13.132812 10.535156 14.140625 Z M 19.691406 20.273438 C 18.820312 21.148438 17.816406 21.871094 16.710938 22.417969 C 16.277344 22.636719 15.816406 22.746094 15.34375 22.746094 C 13.621094 22.746094 12.160156 21.316406 12.085938 19.5625 L 11.949219 16.242188 C 11.925781 15.652344 11.78125 15.085938 11.527344 14.554688 C 11.527344 14.546875 11.53125 14.539062 11.53125 14.53125 C 11.539062 14.464844 11.546875 14.398438 11.550781 14.332031 C 11.550781 14.324219 11.550781 14.320312 11.550781 14.3125 C 11.554688 14.257812 11.558594 14.203125 11.558594 14.148438 C 11.566406 13.035156 13.035156 11.878906 13.519531 11.425781 C 13.820312 11.140625 14.058594 10.488281 12.808594 10.488281 C 11.375 10.488281 8.792969 10.667969 7.605469 11.863281 C 7.527344 11.9375 7.457031 12.015625 7.386719 12.097656 L 4.535156 11.976562 C 3.421875 11.929688 2.410156 11.320312 1.835938 10.351562 C 1.269531 9.402344 1.21875 8.296875 1.699219 7.320312 C 2.242188 6.210938 2.960938 5.203125 3.835938 4.324219 C 5.953125 2.195312 8.769531 1.019531 11.765625 1.019531 C 14.757812 1.019531 17.574219 2.195312 19.691406 4.324219 C 21.8125 6.453125 22.980469 9.285156 22.980469 12.296875 C 22.980469 15.308594 21.8125 18.140625 19.691406 20.273438 Z M 19.691406 20.273438"/>
</svg>

<svg xmlns="http://www.w3.org/2000/svg" width="32" height="32" viewBox="0 0 24 24">
    <path d="M5.625 15.8a.531.531 0 0 0-.727 0l-4.77 5.208c-.179.199-.171.508.02.695l2.133 2.149c.207.195.52.195.703.02l5.176-4.798c.2-.199.2-.52 0-.719zm-2.957 6.99l-1.457-1.466 2.469-2.8 1.773 1.78zm3.527-3.185l-1.82-1.828.887-.89 1.816 1.828zm0 0M17.215 14.926a2.573 2.573 0 1 0 2.574 2.57 2.573 2.573 0 0 0-2.574-2.57zm0 4.129a1.557 1.557 0 0 1 0-3.114 1.557 1.557 0 0 1 0 3.113zm0 0M18.55 7.691a2.57 2.57 0 0 0-2.57 2.575 2.573 2.573 0 1 0 2.57-2.575zm0 4.13a1.554 1.554 0 1 1 0-3.11c.86 0 1.56.695 1.56 1.555 0 .859-.7 1.554-1.56 1.554zm0 0M6.59 4.246a2.573 2.573 0 1 0 2.574 2.57 2.573 2.573 0 0 0-2.574-2.57zm0 4.129a1.557 1.557 0 1 1 .005-3.114 1.557 1.557 0 0 1-.005 3.114zm0 0M16.36 5.473a2.57 2.57 0 0 0-2.575-2.57 2.57 2.57 0 0 0-2.574 2.57 2.574 2.574 0 1 0 5.148 0zM13.784 7.03a1.557 1.557 0 0 1 0-3.113 1.557 1.557 0 0 1 0 3.113zm0 0"/>
    <path d="M20.418 3.602A12.142 12.142 0 0 0 11.766 0c-3.27 0-6.344 1.281-8.657 3.602a12.375 12.375 0 0 0-2.328 3.27 4.192 4.192 0 0 0 .176 4.003 4.322 4.322 0 0 0 3.535 2.121l2.196.094a5.666 5.666 0 0 0-.653 2.11.51.51 0 0 0 .145.413l2.172 2.184a.505.505 0 0 0 .566.105c.816-.355 1.523-1 2-1.754l.012.137.136 3.32c.094 2.293 2.012 4.16 4.278 4.16.629 0 1.242-.144 1.82-.43a12.265 12.265 0 0 0 3.254-2.343A12.258 12.258 0 0 0 24 12.297c0-3.285-1.273-6.371-3.582-8.695zM10.535 14.14c-.004.972-.754 2.105-1.723 2.671l-1.73-1.742a4.482 4.482 0 0 1 1.246-2.488c.727-.73 2.375-.965 3.512-1.039-.63.656-1.297 1.59-1.305 2.598zm9.156 6.132a11.22 11.22 0 0 1-2.98 2.145 3.012 3.012 0 0 1-1.367.328c-1.723 0-3.184-1.43-3.258-3.183l-.137-3.32a4.286 4.286 0 0 0-.422-1.688c0-.008.004-.016.004-.024.008-.066.016-.133.02-.199v-.02c.004-.054.008-.109.008-.164.007-1.113 1.476-2.27 1.96-2.722.301-.285.54-.938-.71-.938-1.434 0-4.016.18-5.204 1.375a3.105 3.105 0 0 0-.218.235l-2.852-.121a3.299 3.299 0 0 1-2.7-1.625C1.27 9.402 1.22 8.297 1.7 7.32a11.245 11.245 0 0 1 2.137-2.996 11.113 11.113 0 0 1 7.93-3.304 11.11 11.11 0 0 1 7.925 3.304 11.223 11.223 0 0 1 3.29 7.973c0 3.012-1.169 5.844-3.29 7.976zm0 0"/>
</svg>
